X:1
T:Title
%%score ( 1 2 ) { 3 | 4 }
L:1/8
Q:1/4=112
M:2/2
K:D
V:1 treble nm="Grand Piano, Soprano"
V:2 treble 
V:3 treble nm="Choir Pad, Joy, Joy, Joy, Crosby, 1875"
V:4 bass 
V:1
 [FA]4 [Fd]4 | .[Ec]8 | [EG]4 [GB]4 | .[FA]8 | [FA]2 [DF][DF] [DF]2 [CE]2 | [DF]2 [EG]2 .[FA]4 | %6
w: By~Alonzo~Judson~Abbey *||||||
 [FA]2 [DF][DF] [DF]2 [CE]2 | [DF]2 [EG]2 .[FA]4 | [Bd]2 [Bd][Bd] [Bd]2 [Ac]2 | %9
w: |||
 [GB]2 [FA]2 [EG]2 [DF]2 | [CE]2 [CE][CE] [CE]2 [CA][DB] | [Ec]2 [DB]2 .[CA]4 | [CA]2 CC [Cc]2 A2 | %13
w: ||||
 e2- [Ee-][Ee] .[Ec]4 | [Ec]2 [Ec][Ec] [Ec]2 [Ec][Ec] | [Ed][Ed] [Ed]2 .[Ec]4 | %16
w: |||
 [Ec]2 [Ec][Ec] [Ec]2 [Ec][Ec] | [Ed][Ed] [Ed]2 .[Ec]4 | [Fd]2 [Ac][GB] [FA]2 [DF]2 | %19
w: |||
 [DF]4 [D^G]4 | [CA]4 z2 [CG]2 | [DF]2 [DF][EG] [FA]2 [FA][FA] | [GB]2 [GB][Ac] [Bd]3 [GB] | %23
w: ||||
 [GB] [FA]2 [DF] [EG]2 [CE]2 | D8 |] %25
w: ||
V:2
 x8 | x8 | x8 | x8 | x8 | x8 | x8 | x8 | x8 | x8 | x8 | x8 | z2 E2 z4 | .E4 z4 | x8 | x8 | x8 | %17
 x8 | x8 | x8 | x8 | x8 | x8 | x8 | x8 |] %25
V:3
 D4 A,4 | .A,8 | C4 C4 | .D8 | D2[K:bass] A,A, A,2 A,2 | A,2 A,2 .D4 | D2 A,A, A,2 A,2 | %7
 A,2 A,2[K:treble] .D4 | D2 DD D2 C2 | B,2 A,2 G,2 F,2 | A,2 A,A, A,2 A,A, | A,2 ^G,2 .A,4 | %12
 A,2 A,A, .A,4 | C2 CC .C4 | A,2[K:bass] A,A, A,2 A,A, | ^G,G, B,2 .A,4 | A,2 A,A, A,2 A,A, | %17
 ^G,G, B,2 .A,4 | A,2[K:treble] DD D2 A,2 | B,4[K:bass] B,4 | A,4 z2 A,2 | %21
 A,2 A,A,[K:treble] D2 DD | D2 DD D3 D | D[K:bass] D2 A, A,2 G,2 | F,8 |] %25
V:4
 D,4 D,4 | .A,,8 | A,,4 A,,4 | .D,8 | D,2 D,D, D,2 A,,2 | D,2 D,2 .D,4 | D,2 D,D, D,2 A,,2 | %7
 D,2 D,2 .D,4 | B,2 B,B, B,2 A,2 | G,2 F,2 E,2 D,2 | E,2 E,E, E,2 E,E, | E,2 E,2 .A,,4 | %12
 A,,2 A,,A,, .A,,4 | A,2 A,A, .A,4 | z8 | E,E, E,2 z4 | z8 | E,E, E,2 z4 | D,2 D,D, D,2 D,2 | %19
 B,,4 E,4 | A,,4 z2 A,,2 | D,2 D,D, D,2 D,D, | G,2 G,G, G,3 G, | D, D,2 D, A,,2 A,,2 | D,8 |] %25

